src/cyfwms-twn-client/public/img/fishes.svg

<svg width="150" height="150" overflow="hidden" version="1.1" xml:space="preserve" xmlns="http://www.w3.org/2000/svg"><defs><clipPath id="clip0"><rect x="572" y="202" width="163" height="166"/></clipPath></defs><g transform="matrix(.6699 0 0 .70257 -362.79 -125.84)" clip-path="url(#clip0)" fill="#00b0f0" stroke="#000" stroke-width="6.7917"><path transform="matrix(1,0,0,1.0184,572,202)" d="m59.188 39.246c-1.231-0.8948-2.9299-0.7608-4.0054 0.3159-6.7594 6.73-10.562 15.874-10.566 25.413 0.0203 4.4524 1.0099 8.8471 2.9 12.879 2.0743-2.778 5.3488-4.4007 8.8156-4.3688 1.9648 0.4673 3.8441 1.2404 5.5691 2.2905l0.7081 0.3668c0.6333 0.3625 0.9478 1.1024 0.7691 1.81-1.2877 4.5938-4.5928 8.3537-8.9836 10.22v0.0204c4.9884 5.4333 9.6085 9.4913 11.429 20.61 1.1971 7.365-3.803 14.306-11.168 15.503-2.5011 0.406-5.0663 0.101-7.4023-0.881-9.1536-3.813-16.944-10.299-22.355-18.609-4.1167 2.347-9.0745 2.706-13.486 0.976-0.6506-0.28-1.0231-0.971-0.8999-1.669l0.1223-0.764c0.1873-2.016 0.6903-3.9905 1.4907-5.8507 0.8043-1.1446 1.8361-2.1111 3.0308-2.839 1.2901-0.7661 2.7187-1.2697 4.204-1.4822-1.4827-4.6781-2.2353-9.5571-2.231-14.465 0.1114-21.587 14.439-40.517 35.184-46.487 1.5553-0.4531 2.7579-1.6906 3.1666-3.2583 1.4592-4.6059 4.8435-8.353 9.2774-10.272 1.8318-0.8735 3.7888-1.455 5.8001-1.7234 0.9093 2.9769 0.46 6.2033-1.2276 8.8189-1.3909 2.3727-0.5951 5.4239 1.7778 6.8148 0.2407 0.1411 0.4929 0.2618 0.7538 0.3606 2.9712 0.9743 5.3602 3.2115 6.5268 6.1125-1.737 1.0509-3.6274 1.8238-5.6031 2.2905-4.6282 1.273-9.5802 0.497-13.597-2.1309z"/><path transform="matrix(1,0,0,1.0184,572,202)" d="m152.37 61.346c-0.187 2.0165-0.69 3.9908-1.49 5.851-0.805 1.1446-1.836 2.1111-3.031 2.839-1.29 0.7661-2.719 1.2697-4.204 1.4822 1.483 4.6782 2.235 9.5571 2.231 14.465-0.116 21.586-14.446 40.514-35.191 46.482-1.556 0.452-2.76 1.69-3.168 3.258-1.46 4.606-4.844 8.353-9.2778 10.272-1.8318 0.874-3.7888 1.455-5.8001 1.724-0.9105-2.981-0.4593-6.212 1.2327-8.829 1.389-2.368 0.5959-5.413-1.7713-6.802-0.2416-0.142-0.495-0.263-0.7569-0.362-2.9763-0.975-5.3689-3.216-6.5353-6.123 1.7369-1.05 3.6274-1.823 5.6031-2.29 4.6297-1.272 9.5824-0.493 13.599 2.138 1.23 0.894 2.928 0.761 4.004-0.315 6.759-6.73 10.561-15.874 10.566-25.412-0.021-4.4524-1.01-8.8471-2.9-12.879-2.075 2.778-5.349 4.4007-8.816 4.3688-1.965-0.4673-3.844-1.2402-5.569-2.2905l-0.708-0.3668c-0.6333-0.3625-0.9478-1.1024-0.7691-1.8099 1.2881-4.5939 4.5931-8.3538 8.9841-10.22v-0.0187c-4.994-5.4333-9.6158-9.4998-11.432-20.64-1.1932-7.3569 3.8035-14.288 11.16-15.481 2.496-0.4048 5.056-0.1002 7.388 0.8794 9.168 3.8113 16.971 10.302 22.388 18.623 4.116-2.3474 9.074-2.7061 13.485-0.9763 0.651 0.2798 1.025 0.9709 0.902 1.6691z"/></g></svg>

<svg width="163" height="166" xmlns="http://www.w3.org/2000/svg" xmlns:xlink="http://www.w3.org/1999/xlink" xml:space="preserve" overflow="hidden"><defs><clipPath id="clip0"><rect x="572" y="202" width="163" height="166"/></clipPath></defs><g clip-path="url(#clip0)" transform="translate(-572 -202)"><path d="M59.1877 39.2456C57.9567 38.3508 56.2578 38.4848 55.1823 39.5615 48.4229 46.2915 44.6207 55.4356 44.6162 64.9742 44.6365 69.4266 45.6261 73.8213 47.5162 77.8529 49.5905 75.0749 52.865 73.4522 56.3318 73.4841 58.2966 73.9514 60.1759 74.7245 61.9009 75.7746L62.609 76.1414C63.2423 76.5039 63.5568 77.2438 63.3781 77.9514 62.0904 82.5452 58.7853 86.3051 54.3945 88.1711L54.3945 88.1915C59.3829 93.6248 64.003 97.6828 65.8231 108.801 67.0202 116.166 62.0201 123.107 54.6553 124.304 52.1542 124.71 49.589 124.405 47.253 123.423 38.0994 119.61 30.3087 113.124 24.8982 104.814 20.7815 107.161 15.8237 107.52 11.4117 105.79 10.7611 105.51 10.3886 104.819 10.5118 104.121L10.6341 103.357C10.8214 101.341 11.3244 99.3665 12.1248 97.5063 12.9291 96.3617 13.9609 95.3952 15.1556 94.6673 16.4457 93.9012 17.8743 93.3976 19.3596 93.1851 17.8769 88.507 17.1243 83.628 17.1286 78.7205 17.24 57.1335 31.5675 38.2033 52.3128 32.2332 53.8681 31.7801 55.0707 30.5426 55.4794 28.9749 56.9386 24.369 60.3229 20.6219 64.7568 18.7026 66.5886 17.8291 68.5456 17.2476 70.5569 16.9792 71.4662 19.9561 71.0169 23.1825 69.3293 25.7981 67.9384 28.1708 68.7342 31.222 71.1071 32.6129 71.3478 32.754 71.6 32.8747 71.8609 32.9735 74.8321 33.9478 77.2211 36.185 78.3877 39.086 76.6507 40.1369 74.7603 40.9098 72.7846 41.3765 68.1564 42.6495 63.2044 41.8735 59.1877 39.2456Z" stroke="#000000" stroke-width="6.7917" fill="#00B0F0" transform="matrix(1 0 0 1.0184 572 202)"/><path d="M152.374 61.3457C152.187 63.3622 151.684 65.3365 150.884 67.1967 150.079 68.3413 149.048 69.3078 147.853 70.0357 146.563 70.8018 145.134 71.3054 143.649 71.5179 145.132 76.1961 145.884 81.075 145.88 85.9825 145.764 107.569 131.434 126.497 110.689 132.465 109.133 132.917 107.929 134.155 107.521 135.723 106.061 140.329 102.677 144.076 98.2432 145.995 96.4114 146.869 94.4544 147.45 92.4431 147.719 91.5326 144.738 91.9838 141.507 93.6758 138.89 95.0648 136.522 94.2717 133.477 91.9045 132.088 91.6629 131.946 91.4095 131.825 91.1476 131.726 88.1713 130.751 85.7787 128.51 84.6123 125.603 86.3492 124.553 88.2397 123.78 90.2154 123.313 94.8451 122.041 99.7978 122.82 103.814 125.451 105.044 126.345 106.742 126.212 107.818 125.136 114.577 118.406 118.379 109.262 118.384 99.7237 118.363 95.2713 117.374 90.8766 115.484 86.845 113.409 89.623 110.135 91.2457 106.668 91.2138 104.703 90.7465 102.824 89.9736 101.099 88.9233L100.391 88.5565C99.7577 88.194 99.4432 87.4541 99.6219 86.7466 100.91 82.1527 104.215 78.3928 108.606 76.5268L108.606 76.5081C103.612 71.0748 98.9902 67.0083 97.1735 55.8682 95.9803 48.5113 100.977 41.5799 108.334 40.3868 110.83 39.982 113.39 40.2866 115.722 41.2662 124.89 45.0775 132.693 51.5683 138.11 59.8889 142.226 57.5415 147.184 57.1828 151.595 58.9126 152.246 59.1924 152.62 59.8835 152.497 60.5817Z" stroke="#000000" stroke-width="6.7917" fill="#00B0F0" transform="matrix(1 0 0 1.0184 572 202)"/></g></svg>
